X: 1
T: Intruder, The
M: 3/4
L: 1/8
R: mazurka
K: Ador
A2 Ae ed|c2 ce fg|af- fd- df ec|e2 dc BG|
A2 Ae ed|c2 ce fg|a2 fd- df ec|e2 dc B2:|:
eA AB c2|d3e fg|af- fd- df ec|e2 dc BA|
eA AB c2|d3e fg|a2 fd- df ec|e2 dc B2:|
